assets/features/payment-flow/RHB Bank.svg

<svg width="200" height="200" viewBox="0 0 200 200" fill="none" xmlns="http://www.w3.org/2000/svg">
<rect width="200" height="200" rx="40" fill="#81CDE5"/>
<path d="M48.1883 83.8373C46.5197 83.8373 44.851 85.5048 44.5173 87.6726L43.1824 97.1775C42.8486 99.3453 44.0167 101.013 45.6853 101.013C47.354 101.013 49.0226 99.3453 49.3563 97.1775L50.6913 87.6726C51.025 85.6716 49.857 83.8373 48.1883 83.8373ZM30 122.19L34.5054 90.5074C35.5066 83.5038 42.8486 77.334 50.8581 77.334C58.8676 77.334 62.7055 82.8368 61.8712 88.3397L61.2038 93.0087C60.7032 96.844 57.8665 100.679 52.6936 103.347L57.8665 112.185C58.5339 113.186 58.7008 114.687 58.5339 116.187C58.0333 119.522 55.5304 122.357 52.6936 122.357C51.1919 122.357 50.0238 121.523 49.3563 120.356L41.6805 107.183L40.3456 116.354C39.8451 119.689 37.3421 122.357 34.6723 122.357H30V122.19Z" fill="#005FA9"/>
<path d="M67.044 84.3376C67.5446 80.5023 70.5482 77.334 73.7186 77.334C76.8891 77.334 78.8914 80.5023 78.3908 84.3376L76.2216 100.346H82.3956L84.7317 84.3376C85.2323 80.5023 88.2359 77.334 91.4063 77.334C94.5768 77.334 96.5791 80.5023 96.0785 84.3376L91.74 115.02C91.2394 118.855 88.2359 122.024 85.0654 122.024C81.895 122.024 79.8927 118.855 80.3932 115.02L81.7281 105.015H75.3873L74.0524 115.02C73.5518 118.855 70.5482 122.024 67.3778 122.024H61.7043L67.044 84.3376Z" fill="#005FA9"/>
<path d="M114.434 83.8369C112.431 83.8369 110.596 85.8379 110.262 88.3392L109.595 92.6747C109.094 95.176 110.596 97.1771 112.598 97.1771C114.601 97.1771 116.436 95.176 116.77 92.6747L117.437 88.3392C117.771 86.0047 116.269 83.8369 114.434 83.8369ZM111.931 100.179C109.928 100.179 108.093 102.18 107.759 104.681L106.925 111.017C106.591 113.519 107.926 115.52 109.762 115.52C111.764 115.52 113.599 113.519 113.933 111.017L114.767 104.681C115.268 102.18 113.933 100.179 111.931 100.179ZM127.282 90.1734C126.782 93.175 125.113 96.0098 122.276 98.6778C124.279 100.679 125.113 103.514 124.613 106.182L124.279 108.85C123.278 115.853 115.936 122.023 107.926 122.023H95.4111L100.083 90.1734C101.085 83.1698 108.427 77 116.436 77C124.446 77 128.284 82.5028 127.449 88.0057L127.282 90.1734Z" fill="#005FA9"/>
<path d="M170 99.6788L149.476 120.189L128.951 99.6788L149.476 79.335L170 99.6788Z" fill="#E63137"/>
</svg>

<svg xmlns="http://www.w3.org/2000/svg" width="200" height="200" fill="none" viewBox="0 0 200 200"><rect width="200" height="200" fill="#81cde5" rx="40"/><path fill="#005fa9" d="M48.188 83.837c-1.668 0-3.337 1.668-3.67 3.836l-1.336 9.504c-.333 2.168.835 3.836 2.503 3.836s3.338-1.668 3.671-3.836l1.335-9.504c.334-2.001-.834-3.836-2.503-3.836M30 122.19l4.505-31.683c1.002-7.003 8.344-13.173 16.353-13.173s11.848 5.503 11.013 11.006l-.667 4.669c-.5 3.835-3.337 7.67-8.51 10.338l5.172 8.838c.668 1.001.835 2.502.668 4.002-.5 3.335-3.004 6.17-5.84 6.17-1.502 0-2.67-.834-3.338-2.001l-7.675-13.173-1.335 9.171c-.5 3.335-3.004 6.003-5.674 6.003H30zm37.044-37.852c.5-3.836 3.504-7.004 6.675-7.004s5.172 3.168 4.672 7.004l-2.17 16.008h6.175l2.336-16.008c.5-3.836 3.504-7.004 6.674-7.004s5.173 3.168 4.672 7.004L91.74 115.02c-.5 3.835-3.504 7.004-6.675 7.004s-5.172-3.169-4.672-7.004l1.335-10.005h-6.34l-1.336 10.005c-.5 3.835-3.504 7.004-6.674 7.004h-5.674zm47.39-.501c-2.003 0-3.838 2-4.172 4.502l-.667 4.336c-.501 2.501 1.001 4.502 3.003 4.502s3.838-2.001 4.172-4.502l.667-4.336c.334-2.334-1.168-4.502-3.003-4.502m-2.503 16.342c-2.003 0-3.838 2.001-4.172 4.502l-.834 6.336c-.334 2.502 1.001 4.503 2.837 4.503 2.002 0 3.837-2.001 4.171-4.503l.834-6.336c.501-2.501-.834-4.502-2.836-4.502m15.351-10.006q-.75 4.503-5.006 8.505a8.44 8.44 0 0 1 2.337 7.504l-.334 2.668c-1.001 7.003-8.343 13.173-16.353 13.173H95.411l4.672-31.85C101.085 83.17 108.427 77 116.436 77s11.848 5.503 11.013 11.006z"/><path fill="#e63137" d="m170 99.679-20.524 20.51-20.525-20.51 20.525-20.344z"/></svg>
